X: 40488
T: Tomeen O'Dea's
R: reel
M: 4/4
K: Gmajor
BGAG EGDG|EAAG (3ABA GA|BGAG EGDG|1 EG (3GGG EGGA:|
G2 (3Bcd eddg|edBG AGEF|G2 Bd eddg|edBG (3ABA GE|
G2 (3Bcd eddg|edBG AGEG|Bd ~d2 eg ~g2|agbg aged||

